X:0
T:Ye Banks and Braes of Bonnie Doon
G:song
S:G.F. Graham, Popular Songs and Melodies of Scotland
N:this book also gives the story of how Burns got it
M:6/8
L:1/8
Q:1/8=100
K:G
% lydian/major/mixolydian pentatonic
D|G2G A>GA|BdB AGA |B>AG G<ED|DEG     A2B/A/|
  G2G A>GA|BdB AGA |B>AG G<ED|DEG     G2   ||
B|d2e dBG |d2e dBG |dBG  dBG |e>dB {B}A2B/A/|
  G2G A>GA|BdB A>GA|B>AG G<ED|DEG     G2   |]

in early 20th century America:

